svgs/light/table-cells-large.svg

<svg xmlns="http://www.w3.org/2000/svg" viewBox="0 0 512 512"><!-- Font Awesome Pro 6.0.0-alpha2 by @fontawesome - https://fontawesome.com License - https://fontawesome.com/license (Commercial License) --><path d="M448 32H64C28.654 32 0 60.652 0 96V416C0 451.346 28.654 480 64 480H448C483.346 480 512 451.346 512 416V96C512 60.652 483.346 32 448 32ZM240 448H64C46.326 448 32 433.672 32 416V272H240V448ZM240 240H32V96C32 78.326 46.326 64 64 64H240V240ZM480 416C480 433.672 465.674 448 448 448H272V272H480V416ZM480 240H272V64H448C465.674 64 480 78.326 480 96V240Z"/></svg>

<svg xmlns="http://www.w3.org/2000/svg" viewBox="0 0 512 512"><!--! Font Awesome Pro 6.0.0-alpha3 by @fontawesome - https://fontawesome.com License - https://fontawesome.com/license (Commercial License) --><path d="M448 32H64C28.65 32 0 60.65 0 96v320c0 35.35 28.65 64 64 64h384c35.35 0 64-28.65 64-64V96C512 60.65 483.3 32 448 32zM240 448H64c-17.67 0-32-14.33-32-32V272h208V448zM240 240H32V96c0-17.67 14.33-32 32-32h176V240zM480 416c0 17.67-14.33 32-32 32h-176V272H480V416zM480 240h-208V64H448c17.67 0 32 14.33 32 32V240z"/></svg>
